X:1
T:Come, You Faithful, Raise the Strain
T:Text: John of Damascus, 8th cent.; tr. John M. Neale, 1859, alt. Tune: Arthur S. Sullivan, 1872
T:76 76 D ST. KEVIN www.hymnary.org/text/come_ye_faithful_raise_the_strain
T:Come, You Faithful, Raise the Strain
T:This hymn is in the public domain. You may freely use this score for personal and congregational worship. If you reproduce the score, please credit Hymnary.org as the source. 
T:This hymn is in the public domain. You may freely use this score for personal and congregational worship. If you reproduce the score, please credit Hymnary.org as the source. 
Z:This hymn is in the public domain. You may freely use this score for personal and congregational worship. If you reproduce the score, please credit Hymnary.org as the source.
%%score ( 1 2 ) ( 3 4 )
L:1/8
M:4/4
K:F
V:1 treble nm="SOPRANO ALTO" snm="S. A."
V:2 treble 
V:3 bass nm="TENOR BASS" snm="T. B."
V:4 bass 
V:1
"^1""^2""^3" A2 A2 AG F2 | A2 B2 c4 | F2 G2 A2 B2 | A4 G4 | G2 G2 =BA G2 | c2 c2 E4 | G2 G2 A2 GF | %7
w: Come, you faith- * ful,|raise the strain|of tri- um- phant|glad- ness;|God has brought _ his|peo- ple forth|in- to joy from _|
w: 'Tis the spring _ of|life to- day!|Christ has burst his|pris- on,|and from three * days'|sleep in death|like the sun has *|
w: "Al- le- lu- * ia!"|now we cry|to our King im-|mor- tal,|who, tri- um- * phant,|burst the bars|of the tomb's dark *|
 E4 C4 | G2 G2 GF G2 | A2 G2 A4 | A2 A2 Bc d2 | F4 E4 |1 A2 A2 AG F2 | A2 B2 c4 | F2 G2 A2 B2 | %15
w: sad- ness.|Now re- joice, _ Je-|ru- sa- lem,|and with true * af-|fec- tion|wel- come in * un-|wea- ried strains|Je- sus' res- ur-|
w: ris- en.|All the win- * ter|of our sins,|long and dark, * is|fly- ing;|wel- come now * the|light of Christ,|give him praise un-|
w: por- tal;|"Al- le- lu- * ia!"|with the Son,|God the Fa- * ther|prais- ing;|"Al- le- lu- * ia!"|yet a- gain|to the Spir- it|
 G4 F4 |] %16
w: rec- tion.|
w: dy- ing.|
w: rais- ing.|
V:2
 F2 F2 FE F2 | F2 E2 F4 | D2 E2 F2 G2 | F4 E4 | F2 F2 D2 D2 | C2 C2 C4 | E2 E2 F2 ED | C4 C4 | %8
 E2 E2 ED C2 | C2 E2 F4 | ^F2 F2 G2 D2 | C4 C4 |1 F2 F2 FE F2 | F2 F2 F4 | F2 F2 F2 F2 | E4 F4 |] %16
V:3
 C2 C2 CB, A,2 | C2 C2 C4 | A,2 C2 C2 D2 | C4 C4 | =B,2 B,2 G,A, B,2 | C2 G,2 C4 | C2 C2 =B,2 B,2 | %7
 C4 C,4 | B,2 B,2 B,A, G,2 | F,2 C2 C4 | D2 D2 DC B,2 | A,4 G,4 |1 C2 C2 CB, A,2 | C2 C2 _E4 | %14
 D2 D2 C2 B,2 | B,4 A,4 |] %16
V:4
 F,2 F,2 F,2 F,2 | F,2 G,2 A,4 | D,2 C,2 F,2 B,,2 | C,4 C,4 | D,2 D,2 F,2 F,2 | E,2 E,2 A,4 | %6
 G,2 G,2 G,,2 G,,2 | C,4 C,4 | C,2 C,2 C,D, E,2 | F,2 C,2 F,4 | D,2 D,2 G,2 B,,2 | C,4 C,4 |1 %12
 F,2 F,2 F,2 F,2 | F,2 G,2 A,4 | B,2 B,2 A,2 G,2 | C,4 F,4 |] %16

